img/logo.svg

<svg width="286" height="36" viewBox="0 0 286 36" fill="none" xmlns="http://www.w3.org/2000/svg">
<path d="M64.6249 7.66498H68.4572V24.7592H79.2491V27.948H64.6249V7.66498Z" fill="#07275C"/>
<path d="M85.8541 26.8887C84.2012 26.0255 82.8237 24.7297 81.874 23.1448C80.9255 21.5174 80.4265 19.6746 80.4265 17.7992C80.4265 15.9239 80.9255 14.0811 81.874 12.4537C82.8237 10.8706 84.2014 9.57715 85.8541 8.71704C87.6148 7.83015 89.5649 7.3676 91.5435 7.3676C93.5221 7.3676 95.4723 7.83015 97.233 8.71704C98.8817 9.57596 100.258 10.8635 101.213 12.4392C102.162 14.0718 102.661 15.9193 102.661 17.7992C102.661 19.6792 102.162 21.5267 101.213 23.1593C100.257 24.7341 98.8809 26.0214 97.233 26.8814C95.4716 27.766 93.5217 28.2273 91.5435 28.2273C89.5654 28.2273 87.6155 27.766 85.8541 26.8814V26.8887ZM95.2577 24.0191C96.3418 23.4239 97.2365 22.5448 97.8422 21.4796C98.46 20.3531 98.7835 19.0934 98.7835 17.8137C98.7835 16.534 98.46 15.2744 97.8422 14.1479C97.2349 13.0838 96.3406 12.205 95.2577 11.6084C94.1142 11.0107 92.8388 10.698 91.5435 10.698C90.2483 10.698 88.9728 11.0107 87.8293 11.6084C86.7456 12.204 85.851 13.083 85.2449 14.1479C84.6244 15.2736 84.2995 16.5335 84.2995 17.8137C84.2995 19.0939 84.6244 20.3539 85.2449 21.4796C85.8496 22.5455 86.7445 23.4249 87.8293 24.0191C88.972 24.6193 90.2478 24.9333 91.5435 24.9333C92.8393 24.9333 94.115 24.6193 95.2577 24.0191Z" fill="#07275C"/>
<path d="M125.067 7.66498V27.948H121.911L110.532 14.2132V27.948H106.729V7.66498H109.882L121.265 21.3998V7.66498H125.067Z" fill="#07275C"/>
<path d="M149.775 27.4691C149.541 27.2458 149.358 26.9773 149.236 26.6807C149.114 26.384 149.056 26.0657 149.066 25.7459C149.066 25.1157 149.321 24.5113 149.774 24.0657C150.228 23.6201 150.843 23.3697 151.484 23.3697C152.125 23.3697 152.74 23.6201 153.194 24.0657C153.648 24.5113 153.902 25.1157 153.902 25.7459C153.906 26.2172 153.767 26.6788 153.504 27.0727C153.24 27.4666 152.864 27.7751 152.423 27.9594C151.982 28.1436 151.495 28.1954 151.023 28.1082C150.552 28.0209 150.118 27.7986 149.775 27.4691Z" fill="#07275C"/>
<path d="M172.211 23.2536H161.892L159.858 27.948H155.915L165.2 7.66498H168.977L178.292 27.948H174.275L172.211 23.2536ZM170.945 20.297L167.053 11.4343L163.188 20.297H170.945Z" fill="#07275C"/>
<path d="M194.707 17.5761H198.336V25.6589C197.226 26.5134 195.966 27.1613 194.618 27.5707C193.206 28.0095 191.732 28.2298 190.251 28.2237C188.269 28.2535 186.312 27.7905 184.561 26.8778C182.913 26.0178 181.537 24.7305 180.581 23.1557C179.635 21.5222 179.137 19.6751 179.137 17.7956C179.137 15.9161 179.635 14.069 180.581 12.4355C181.539 10.8576 182.921 9.56972 184.576 8.71342C186.342 7.79807 188.313 7.33398 190.31 7.36388C191.931 7.34453 193.541 7.63405 195.05 8.21641C196.421 8.74814 197.643 9.59244 198.617 10.6797L196.184 12.987C195.446 12.2387 194.561 11.6469 193.582 11.2482C192.602 10.8495 191.55 10.6523 190.491 10.6688C189.142 10.6445 187.809 10.9539 186.614 11.5685C185.506 12.1455 184.585 13.0182 183.959 14.0862C183.309 15.2158 182.979 16.4961 183.003 17.7938C182.985 19.0787 183.321 20.3446 183.974 21.4579C184.605 22.5275 185.524 23.4059 186.629 23.9973C187.808 24.629 189.133 24.949 190.476 24.926C191.961 24.958 193.427 24.5972 194.722 23.8812L194.707 17.5761Z" fill="#07275C"/>
<path d="M241.47 7.66498V27.948H238.314L226.935 14.2132V27.948H223.128V7.66498H226.285L237.668 21.3998V7.66498H241.47Z" fill="#07275C"/>
<path d="M250.918 26.8886C249.279 26.0276 247.912 24.7399 246.968 23.1665C246.026 21.5316 245.531 19.685 245.531 17.8065C245.531 15.9279 246.026 14.0813 246.968 12.4464C247.92 10.8739 249.291 9.58684 250.933 8.72427C252.668 7.81135 254.611 7.34695 256.578 7.37473C258.166 7.35502 259.741 7.65119 261.208 8.2454C262.573 8.80222 263.786 9.66579 264.749 10.7667L262.271 13.0559C261.58 12.2932 260.729 11.6862 259.778 11.2761C258.826 10.866 257.795 10.6626 256.756 10.6797C255.43 10.6586 254.12 10.9721 252.953 11.5902C251.855 12.1805 250.946 13.0599 250.328 14.1297C249.71 15.2614 249.386 16.5258 249.386 17.8101C249.386 19.0944 249.71 20.3587 250.328 21.4905C250.944 22.5614 251.853 23.4412 252.953 24.0299C254.119 24.6504 255.429 24.9652 256.756 24.9441C257.797 24.96 258.83 24.7531 259.783 24.3378C260.735 23.9225 261.584 23.3087 262.271 22.5389L264.749 24.8571C263.782 25.9608 262.564 26.8247 261.193 27.3784C259.724 27.9608 258.151 28.2482 256.567 28.2237C254.6 28.2565 252.656 27.7971 250.918 26.8886Z" fill="#07275C"/>
<path d="M277.058 20.7904V27.948H273.226V20.8484L265.103 7.66498H269.205L275.249 17.5471L281.352 7.66498H285.136L277.058 20.7904Z" fill="#07275C"/>
<path d="M60.4639 7.66133H44.9868V10.8175H60.4639V7.66133Z" fill="#07275C"/>
<path d="M57.4733 16.0053H41.9962V19.1615H57.4733V16.0053Z" fill="#07275C"/>
<path d="M60.4639 24.7882H44.9868V27.9444H60.4639V24.7882Z" fill="#07275C"/>
<path d="M130.609 24.5705V27.7267H146.09V24.5705H130.609Z" fill="#07275C"/>
<path d="M146.086 7.44366H130.609V10.5998H146.086V7.44366Z" fill="#07275C"/>
<path d="M143.096 15.784H127.619V18.9402H143.096V15.784Z" fill="#07275C"/>
<path d="M146.086 24.5668H130.609V27.723H146.086V24.5668Z" fill="#07275C"/>
<path d="M203.265 24.7918V27.948H218.742V24.7918H203.265Z" fill="#07275C"/>
<path d="M218.739 7.66498H203.261V10.8212H218.739V7.66498Z" fill="#07275C"/>
<path d="M215.752 16.0053H200.275V19.1615H215.752V16.0053Z" fill="#07275C"/>
<path d="M218.739 24.7882H203.261V27.9444H218.739V24.7882Z" fill="#07275C"/>
<path d="M17.858 36C27.7206 36 35.7159 27.9411 35.7159 18C35.7159 8.05887 27.7206 0 17.858 0C7.99528 0 0 8.05887 0 18C0 27.9411 7.99528 36 17.858 36Z" fill="url(#paint0_linear)"/>
<path d="M26.8758 7.83963C26.4645 8.26207 26.2341 8.83031 26.2341 9.42218C26.2341 10.0141 26.4645 10.5823 26.8758 11.0047H11.7602C11.3945 10.5597 11.1945 10 11.1945 9.42218C11.1945 8.84436 11.3945 8.28465 11.7602 7.83963H26.8758Z" fill="#07275C"/>
<path d="M26.8759 25C26.4638 25.421 26.2327 25.9887 26.2327 26.5802C26.2327 27.1717 26.4638 27.7393 26.8759 28.1604H11.7603C11.395 27.7161 11.1951 27.1572 11.1951 26.5802C11.1951 26.0032 11.395 25.4443 11.7603 25H26.8759Z" fill="#07275C"/>
<path d="M8.2738 16.1981C8.68509 16.6206 8.9155 17.1888 8.9155 17.7807C8.9155 18.3725 8.68509 18.9408 8.2738 19.3632H23.3941C23.7598 18.9182 23.9598 18.3585 23.9598 17.7807C23.9598 17.2029 23.7598 16.6432 23.3941 16.1981H8.2738Z" fill="#07275C"/>
<defs>
<linearGradient id="paint0_linear" x1="35.7159" y1="6.72991e-06" x2="-3.55703" y2="4.81745" gradientUnits="userSpaceOnUse">
<stop stop-color="#FFE600"/>
<stop offset="1" stop-color="#FA940B"/>
</linearGradient>
</defs>
</svg>

<svg width="286" height="36" fill="none" xmlns="http://www.w3.org/2000/svg"><path d="M64.625 7.665h3.832v17.094H79.25v3.189H64.625V7.665zm21.229 19.224a10.068 10.068 0 01-3.98-3.744 10.612 10.612 0 01-1.447-5.346c0-1.875.498-3.718 1.447-5.345a10.042 10.042 0 013.98-3.737 12.65 12.65 0 015.69-1.35c1.978 0 3.928.463 5.689 1.35a10.112 10.112 0 013.98 3.722 10.662 10.662 0 011.448 5.36c0 1.88-.499 3.728-1.448 5.36a10.138 10.138 0 01-3.98 3.722 12.681 12.681 0 01-5.69 1.346c-1.978 0-3.928-.461-5.689-1.346v.008zm9.404-2.87a6.652 6.652 0 002.584-2.54 7.621 7.621 0 00.942-3.665c0-1.28-.324-2.54-.942-3.666a6.688 6.688 0 00-2.584-2.54 8.02 8.02 0 00-7.429 0 6.662 6.662 0 00-2.584 2.54 7.591 7.591 0 00-.946 3.666c0 1.28.325 2.54.946 3.666a6.629 6.629 0 002.584 2.54 7.99 7.99 0 003.715.913 7.99 7.99 0 003.714-.914zm29.809-16.354v20.283h-3.156l-11.379-13.735v13.735h-3.803V7.665h3.153L121.265 21.4V7.665h3.802zm24.708 19.805a2.297 2.297 0 01-.709-1.724c0-.63.255-1.235.708-1.68a2.442 2.442 0 011.71-.696c.641 0 1.256.25 1.71.696.454.445.708 1.05.708 1.68.004.471-.135.933-.398 1.327-.264.394-.64.702-1.081.886a2.47 2.47 0 01-1.4.15 2.444 2.444 0 01-1.248-.64zm22.436-4.216h-10.319l-2.034 4.694h-3.943L165.2 7.665h3.777l9.315 20.283h-4.017l-2.064-4.694zm-1.266-2.957l-3.892-8.863-3.865 8.863h7.757zm23.762-2.721h3.629v8.083a11.64 11.64 0 01-3.718 1.912 14.52 14.52 0 01-4.367.653 11.926 11.926 0 01-5.69-1.346 10.137 10.137 0 01-3.98-3.722 10.692 10.692 0 01-1.444-5.36c0-1.88.498-3.727 1.444-5.36a10.095 10.095 0 013.995-3.723 12.07 12.07 0 015.734-1.35 12.782 12.782 0 014.74.853 9.303 9.303 0 013.567 2.464l-2.433 2.307a7.769 7.769 0 00-2.602-1.739 7.88 7.88 0 00-3.091-.58 8.158 8.158 0 00-3.877.9 6.616 6.616 0 00-2.655 2.518 7.165 7.165 0 00-.956 3.708 7.045 7.045 0 00.971 3.664 6.81 6.81 0 002.655 2.54 7.862 7.862 0 003.847.928 8.403 8.403 0 004.246-1.045l-.015-6.305zm46.763-9.911v20.283h-3.156l-11.379-13.735v13.735h-3.807V7.665h3.157L237.668 21.4V7.665h3.802zm9.448 19.224a10.054 10.054 0 01-3.95-3.723 10.733 10.733 0 01-1.437-5.36c0-1.878.495-3.725 1.437-5.36a10.145 10.145 0 013.965-3.722 11.772 11.772 0 015.645-1.35 11.958 11.958 0 014.63.871 9.439 9.439 0 013.541 2.522l-2.478 2.289a7.222 7.222 0 00-2.493-1.78 7.336 7.336 0 00-3.022-.596 7.862 7.862 0 00-3.803.91 6.682 6.682 0 00-2.625 2.54 7.677 7.677 0 00-.942 3.68c0 1.284.324 2.549.942 3.68a6.637 6.637 0 002.625 2.54 7.834 7.834 0 003.803.914 7.301 7.301 0 003.027-.606 7.183 7.183 0 002.488-1.8l2.478 2.32a9.41 9.41 0 01-3.556 2.52 12.05 12.05 0 01-4.626.846 11.775 11.775 0 01-5.649-1.335zm26.14-6.099v7.158h-3.832v-7.1l-8.123-13.183h4.102l6.044 9.882 6.103-9.882h3.784l-8.078 13.125zM60.464 7.661H44.987v3.157h15.477V7.66zm-2.991 8.344H41.996v3.157h15.477v-3.157zm2.991 8.783H44.987v3.156h15.477v-3.156zm70.145-.218v3.157h15.481V24.57h-15.481zm15.477-17.126h-15.477V10.6h15.477V7.444zm-2.99 8.34h-15.477v3.156h15.477v-3.156z" fill="#07275C"/><path d="M146.086 24.567h-15.477v3.156h15.477v-3.156zm57.179.225v3.156h15.477v-3.156h-15.477zm15.474-17.127h-15.478v3.156h15.478V7.665zm-2.987 8.34h-15.477v3.157h15.477v-3.157z" fill="#07275C"/><path d="M218.739 24.788h-15.478v3.156h15.478v-3.156z" fill="#07275C"/><path d="M17.858 36c9.863 0 17.858-8.059 17.858-18S27.72 0 17.858 0 0 8.059 0 18s7.995 18 17.858 18z" fill="url(#paint0_linear)"/><path d="M26.876 7.84a2.269 2.269 0 000 3.165H11.76a2.493 2.493 0 010-3.165h15.116zm0 17.16a2.26 2.26 0 000 3.16H11.76a2.488 2.488 0 010-3.16h15.116zM8.274 16.198a2.269 2.269 0 010 3.165h15.12a2.493 2.493 0 000-3.165H8.274z" fill="#07275C"/><defs><linearGradient id="paint0_linear" x1="35.716" y1="0" x2="-3.557" y2="4.817" gradientUnits="userSpaceOnUse"><stop stop-color="#FFE600"/><stop offset="1" stop-color="#FA940B"/></linearGradient></defs></svg>
